tools/download-figma-icons/icons/solid/binoculars.svg

<svg width="24" height="24" viewBox="0 0 24 24" fill="none" xmlns="http://www.w3.org/2000/svg">
<path fill-rule="evenodd" clip-rule="evenodd" d="M18.375 19.5003C16.11 19.5003 14.2575 17.6628 14.25 15.3903L14.3025 14.7678C14.595 12.7803 16.305 11.2503 18.375 11.2503C19.8825 11.2503 21.21 12.0678 21.9225 13.2828L22.185 13.7928C22.3875 14.2803 22.5 14.8128 22.5 15.3753C22.5 17.6478 20.6475 19.5003 18.375 19.5003ZM12.9525 12.7503H11.0475L10.575 6.75035H13.425L12.9525 12.7503ZM5.625 19.5003C3.3525 19.5003 1.5 17.6478 1.5 15.3753C1.5 14.8128 1.6125 14.2803 1.815 13.7928L2.0775 13.2903C2.79 12.0678 4.11 11.2503 5.625 11.2503C7.695 11.2503 9.405 12.7803 9.6975 14.7678L9.75 15.3903C9.7425 17.6628 7.89 19.5003 5.625 19.5003ZM23.5425 13.1629L23.535 13.1479C23.4525 12.9529 23.355 12.7654 23.25 12.5779L19.2375 4.68786C18.915 3.93786 17.805 2.63286 15.8775 3.09786C14.3625 3.46536 13.755 4.51536 13.5675 5.26536C13.5562 5.26536 13.545 5.26161 13.5338 5.25786C13.5225 5.25411 13.5112 5.25036 13.5 5.25036H10.5C10.4839 5.25036 10.47 5.25467 10.4571 5.25867C10.4459 5.26213 10.4354 5.26536 10.425 5.26536C10.2375 4.49286 9.6225 3.46536 8.1225 3.09786C6.1875 2.63286 5.085 3.93786 4.785 4.64286L0.75 12.5779C0.645 12.7654 0.5475 12.9529 0.465 13.1479L0.4575 13.1629C0.165 13.8454 0 14.5879 0 15.3754C0 18.4804 2.52 21.0004 5.625 21.0004C8.34 21.0004 10.6125 19.0654 11.1375 16.5004H12.8625C13.3875 19.0654 15.66 21.0004 18.375 21.0004C21.48 21.0004 24 18.4804 24 15.3754C24 14.5879 23.835 13.8454 23.5425 13.1629ZM5.625 12.0011C5.21025 12.0011 4.875 12.3363 4.875 12.7503C4.875 13.1651 5.21025 13.5003 5.625 13.5003C6.65925 13.5003 7.5 14.3411 7.5 15.3753C7.5 15.7901 7.83525 16.1253 8.25 16.1253C8.66475 16.1253 9 15.7901 9 15.3753C9 13.5146 7.48575 12.0011 5.625 12.0011ZM17.625 12.7503C17.625 12.3363 17.9603 12.0011 18.375 12.0011C20.2358 12.0011 21.75 13.5146 21.75 15.3753C21.75 15.7901 21.4147 16.1253 21 16.1253C20.5853 16.1253 20.25 15.7901 20.25 15.3753C20.25 14.3411 19.4093 13.5003 18.375 13.5003C17.9603 13.5003 17.625 13.1651 17.625 12.7503Z" fill="black"/>
</svg>

<svg xmlns="http://www.w3.org/2000/svg" width="24" height="24" fill="none" viewBox="0 0 24 24"><path fill="currentColor" fill-rule="evenodd" d="M18.375 19.5a4.13 4.13 0 0 1-4.125-4.11l.053-.622a4.115 4.115 0 0 1 7.62-1.485l.262.51c.203.487.315 1.02.315 1.582a4.13 4.13 0 0 1-4.125 4.125m-5.422-6.75h-1.905l-.473-6h2.85zM5.625 19.5A4.13 4.13 0 0 1 1.5 15.375c0-.562.113-1.095.315-1.582l.263-.503a4.1 4.1 0 0 1 3.547-2.04 4.12 4.12 0 0 1 4.073 3.518l.052.622a4.13 4.13 0 0 1-4.125 4.11m17.918-6.337-.008-.015a6 6 0 0 0-.285-.57l-4.012-7.89c-.323-.75-1.433-2.055-3.36-1.59-1.515.367-2.123 1.417-2.31 2.167a.1.1 0 0 1-.034-.007.1.1 0 0 0-.034-.008h-3a.1.1 0 0 0-.043.009.1.1 0 0 1-.032.006c-.187-.772-.803-1.8-2.302-2.167-1.935-.465-3.038.84-3.338 1.545L.75 12.578a6 6 0 0 0-.285.57l-.008.015A5.6 5.6 0 0 0 0 15.375 5.627 5.627 0 0 0 5.625 21a5.636 5.636 0 0 0 5.512-4.5h1.726a5.636 5.636 0 0 0 5.512 4.5A5.627 5.627 0 0 0 24 15.375c0-.787-.165-1.53-.457-2.212M5.625 12a.75.75 0 1 0 0 1.5c1.034 0 1.875.84 1.875 1.874a.75.75 0 1 0 1.5 0A3.38 3.38 0 0 0 5.625 12m12 .75a.75.75 0 0 1 .75-.75 3.38 3.38 0 0 1 3.375 3.374.75.75 0 1 1-1.5 0c0-1.034-.84-1.875-1.875-1.875a.75.75 0 0 1-.75-.75" clip-rule="evenodd"/></svg>
